X:3312
T:Condon's Frolics
R:jig
H:Played in Ador or Bdor. Sometimes played with 2nd part first.
D:Paddy Keenan: Port an Phiobaire
Z:id:hn-jig-154
M:6/8
K:Ador
eAB c2d|edc BAG|eAB c2d|e2d eag|eAB c2d|edc ~B3|GBd gdB|ABA ABd:|
eaa efg|dec BAG|cBc dcd|e2d efg|eaa efg|dec BAB|GBd gdB|ABA ABd:|
K:Bdor
fBc d2e|fed cBA|fBc d2e|f2e fba|fBc d2e|fed cBc|Ace aec|BcB B2f:|
fbb fga|efd cBA|dcd ede|f2e fga|fbb fga|efd cBc|Ace aec|BcB B2f:|


